X:1
T:Title
%%score { ( 1 3 ) | ( 2 4 ) }
L:1/8
M:4/4
K:D
V:1 treble nm="Grand Piano"
V:3 treble 
V:2 treble 
V:4 treble 
V:1
 z8[Q:1/4=94] | A2 A2 B2 A>A |[M:3/4] d>A [=Fc]2 [A,^FA]2 |[M:1/4] A>A |[M:4/4] A>C E>G c>B c>B | %5
 [DF]6 z2 | A2 z2 B2 z2 | d2 z2 z4 | [Ec]>c c>d [Ec]2 [DB]2 | [CA]6 z2 | e2 d2 c2 B2 | %11
 [FA]>[GB] [FA]>[DF] [FA]4 | B>^A B>c e>d c>B | %13
[M:9/8] [DFA]2 [A,DF]- [A,DF] [CE]2- [CE][A,CF]>[K:bass][G,CE] | %14
[M:4/4] [F,D]>[F,D] [A,CE]>[A,CE][K:treble] F>F G>G |[M:9/8] A>A[Fd]- [Fd]/[Fd]/ B2- B e2 | %16
[M:4/4] z4 .d2 .B2 |[M:3/4] [Fd]6 |] %18
V:2
 z4 z2 D>F | z z/ A/ z z/ A/ z z/ A/ A,,2 |[M:3/4] [D,A,]2 z z/[K:treble] B/ D,2 |[M:1/4] z2 | %4
[M:4/4][K:bass] z4 [A,C]4 | [D,A,]>A,, D,>F, A,2[K:treble] D>F | z z/ A/ z z/ A/ z z/ A/ A,,2 | %7
 [D,A,]2 z z/[K:treble] B/ D,2 A>B | E,,2 [E,A,E]2 E,,2 [E,^G,]2 | A,>A, E,>C, A,,2 z2 | %10
 [A,CG]2 [A,DG]2 [A,EG]2 [A,CG]2 | [D,D]>[D,D] [D,D]>[D,A,] [D,D]4 | %12
 [G,DG]>[G,DG] [G,DG]>[G,DG] [G,B,G]>[G,B,G] [G,DG]>[G,DG] | %13
[M:9/8][K:bass] D,2 F,- F, A,2- A,A,,>A,, | %14
[M:4/4] B,,>B,, A,,>G,, [D,A,D]>[D,A,D] [E,A,C]>[E,A,C] | %15
[M:9/8] [F,A,D]>[F,A,D][D,A,]- [D,A,]/[D,A,]/[K:treble] [G,B,D]2- [G,B,D] [G,B,G]2 | %16
[M:4/4] [A,F]3 [A,F][K:bass] [A,,A,]2 [A,,A,]2 |[M:3/4] [D,A,]6 |] %18
V:3
 x8 | [A,DF]4 [A,CG]4 |[M:3/4] F2 z2 z2 |[M:1/4] x2 |[M:4/4] z4 G4 | x8 | %6
 [A,DF]2- [A,DFA]2 [A,CG]2- [A,-C-G-A]>[A,CGA] | F->[FA] [=Fc]2 [A,^FA]2 z2 | x8 | x8 | x8 | x8 | %12
 x8 |[M:9/8] x17/2[K:bass] x/ |[M:4/4] x4[K:treble] x4 |[M:9/8] x9 |[M:4/4] d3 d G-[Gc]G-[Gc] | %17
[M:3/4] x6 |] %18
V:4
 x8 | D,2 A,,2 E,2 z2 |[M:3/4] z2 [D,^G,]2[K:treble] z2 |[M:1/4] x2 | %4
[M:4/4][K:bass] [E,A,C]2 A,,2 E,2 A,,2 | x6[K:treble] x2 | D,2 A,,2 E,2 z2 | %7
 z2 [D,^G,]2[K:treble] z4 | x8 | x8 | x8 | x8 | x8 |[M:9/8][K:bass] x9 |[M:4/4] x8 | %15
[M:9/8] x4[K:treble] x5 |[M:4/4] x4[K:bass] x4 |[M:3/4] x6 |] %18

